public/social-icons/facebook.svg

<svg fill="none" height="20" viewBox="0 0 10 20" width="10" xmlns="http://www.w3.org/2000/svg" xmlns:xlink="http://www.w3.org/1999/xlink"><clipPath id="a"><path d="m0 0h10v20h-10z"/></clipPath><g clip-path="url(#a)"><path d="m103.907 19.7085h3.931v-6.0374l5.485 6.0374h4.809l-6.385-6.9581 5.455-6.03325h-4.377l-4.987 5.56075v-12.27619102l-3.931.48911502zm-9.0649-13.32413c-4.3637 0-7.394 2.78645-7.394 6.82643 0 4.04 3.0303 6.8265 7.394 6.8265 4.3636 0 7.3939-2.7865 7.3939-6.8265 0-4.03998-3.0303-6.82643-7.3939-6.82643zm0 10.47193c-2.0217 0-3.4069-1.4837-3.4069-3.6455 0-2.1617 1.3852-3.64542 3.4069-3.64542 2.0216 0 3.4069 1.48372 3.4069 3.64542 0 2.1618-1.3853 3.6455-3.4069 3.6455zm-15.9743-10.47193c-4.3636 0-7.394 2.78645-7.394 6.82643 0 4.04 3.0304 6.8265 7.394 6.8265 4.3638 0 7.394-2.7865 7.394-6.8265 0-4.03998-3.0302-6.82643-7.394-6.82643zm0 10.47193c-2.0216 0-3.4069-1.4837-3.4069-3.6455 0-2.1617 1.3853-3.64542 3.4069-3.64542 2.0218 0 3.407 1.48372 3.407 3.64542 0 2.1618-1.3852 3.6455-3.407 3.6455zm-15.0434-10.47193c-1.8182 0-3.3247.6781-4.2684 1.91924v-8.30190102l-3.9351.48493702v19.217754h3.4892l.0692-2.0056c.9308 1.4959 2.5975 2.3385 4.6451 2.3385 3.7317 0 6.4633-2.877 6.4633-6.8265 0-3.9496-2.7187-6.82643-6.4633-6.82643zm-.9307 10.47193c-2.0217 0-3.4069-1.4837-3.4069-3.6455 0-2.1617 1.3852-3.64542 3.4069-3.64542 2.0216 0 3.4069 1.48372 3.4069 3.64542 0 2.1618-1.3853 3.6455-3.4069 3.6455zm-15.1517.1684c-2.0866 0-3.5844-.9206-4.0952-2.5069h9.684c.0953-.485.1602-1.0604.1602-1.4467 0-4.17977-2.4633-6.68673-6.6018-6.68673-4.1775 0-7.0694 2.78645-7.0694 6.82643 0 4.0934 3.0304 6.8265 7.5283 6.8265 2.3289 0 4.5931-.7398 6.0087-1.9686l-1.4156-2.3672c-1.3723.9-2.7187 1.3232-4.1992 1.3232zm-.8788-7.73881c1.8182 0 2.9784 1.04801 2.9784 2.67141v.0124h-6.2771c.3767-1.722 1.5497-2.68381 3.2987-2.68381zm-13.1992 10.75541c2.0346 0 4.026-.7397 5.4285-2.022l-1.5368-2.4535c-1.0909.8055-2.3289 1.2411-3.5021 1.2411-2.1819 0-3.6364-1.4467-3.6364-3.592s1.4545-3.59205 3.6364-3.59205c1.0778 0 2.251.36987 3.2034 1.02345l1.5628-2.50712c-1.2641-1.08494-3.2208-1.75076-5.1602-1.75076-4.2684 0-7.2858 2.82759-7.2858 6.82648.0043 3.9866 3.0216 6.8264 7.2902 6.8264zm-12.498-13.32415-.0692 2.02215c-.9308-1.50835-2.5975-2.35088-4.6451-2.35088-3.7447 0-3.9517 2.87696-3.9517 6.82648 0 3.9496.2244 6.8264 3.9517 6.8264 2.0476 0 3.7185-.8425 4.6451-2.3385l.0692 2.0056h3.4892v-12.99125zm-3.7836 10.13915c-2.0216 0-3.407-1.4837-3.407-3.6455 0-2.1617 1.3854-3.64542 3.407-3.64542 2.0217 0 3.4069 1.48372 3.4069 3.64542 0 2.1618-1.3896 3.6455-3.4069 3.6455zm-7.68844-10.11472h-3.5368v-1.10975c0-1.66037.684-2.29734 2.45894-2.29734.54973 0 .9956.01228 1.25106.03697v-2.848105c-.48493-.127469-1.66666-.25481-2.35066-.25481-3.6148 0-5.28147 1.619235-5.28147 5.116705v1.35216h-2.233733v3.14h2.233733v9.82669h3.9264v-9.82264h2.92653z" fill="#fff"/></g></svg>

<svg width="10" height="20" viewBox="0 0 10 20" fill="none" xmlns="http://www.w3.org/2000/svg"><g clip-path="url(#clip0_2086_46)"><path d="M103.907 19.7085H107.838V13.6711L113.323 19.7085H118.132L111.747 12.7504L117.202 6.71715H112.825L107.838 12.2779V0.00170898L103.907 0.490824V19.7085ZM94.8421 6.38437C90.4784 6.38437 87.4481 9.17082 87.4481 13.2108C87.4481 17.2508 90.4784 20.0373 94.8421 20.0373C99.2057 20.0373 102.236 17.2508 102.236 13.2108C102.236 9.17082 99.2057 6.38437 94.8421 6.38437ZM94.8421 16.8563C92.8204 16.8563 91.4352 15.3726 91.4352 13.2108C91.4352 11.0491 92.8204 9.56538 94.8421 9.56538C96.8637 9.56538 98.249 11.0491 98.249 13.2108C98.249 15.3726 96.8637 16.8563 94.8421 16.8563ZM78.8678 6.38437C74.5042 6.38437 71.4738 9.17082 71.4738 13.2108C71.4738 17.2508 74.5042 20.0373 78.8678 20.0373C83.2316 20.0373 86.2618 17.2508 86.2618 13.2108C86.2618 9.17082 83.2316 6.38437 78.8678 6.38437ZM78.8678 16.8563C76.8462 16.8563 75.4609 15.3726 75.4609 13.2108C75.4609 11.0491 76.8462 9.56538 78.8678 9.56538C80.8896 9.56538 82.2748 11.0491 82.2748 13.2108C82.2748 15.3726 80.8896 16.8563 78.8678 16.8563ZM63.8244 6.38437C62.0062 6.38437 60.4997 7.06247 59.556 8.30361V0.00170898L55.6209 0.486646V19.7044H59.1101L59.1793 17.6988C60.1101 19.1947 61.7768 20.0373 63.8244 20.0373C67.5561 20.0373 70.2877 17.1603 70.2877 13.2108C70.2877 9.2612 67.569 6.38437 63.8244 6.38437ZM62.8937 16.8563C60.872 16.8563 59.4868 15.3726 59.4868 13.2108C59.4868 11.0491 60.872 9.56538 62.8937 9.56538C64.9153 9.56538 66.3006 11.0491 66.3006 13.2108C66.3006 15.3726 64.9153 16.8563 62.8937 16.8563ZM47.742 17.0247C45.6554 17.0247 44.1576 16.1041 43.6468 14.5178H53.3308C53.4261 14.0328 53.491 13.4574 53.491 13.0711C53.491 8.89133 51.0277 6.38437 46.8892 6.38437C42.7117 6.38437 39.8198 9.17082 39.8198 13.2108C39.8198 17.3042 42.8502 20.0373 47.3481 20.0373C49.677 20.0373 51.9412 19.2975 53.3568 18.0687L51.9412 15.7015C50.5689 16.6015 49.2225 17.0247 47.742 17.0247ZM46.8632 9.28589C48.6814 9.28589 49.8416 10.3339 49.8416 11.9573V11.9697H43.5645C43.9412 10.2477 45.1142 9.28589 46.8632 9.28589ZM33.664 20.0413C35.6986 20.0413 37.69 19.3016 39.0925 18.0193L37.5557 15.5658C36.4648 16.3713 35.2268 16.8069 34.0536 16.8069C31.8717 16.8069 30.4172 15.3602 30.4172 13.2149C30.4172 11.0696 31.8717 9.62285 34.0536 9.62285C35.1314 9.62285 36.3046 9.99272 37.257 10.6463L38.8198 8.13918C37.5557 7.05424 35.599 6.38842 33.6596 6.38842C29.3912 6.38842 26.3738 9.21601 26.3738 13.2149C26.3781 17.2015 29.3954 20.0413 33.664 20.0413ZM21.166 6.71715L21.0968 8.7393C20.166 7.23095 18.4993 6.38842 16.4517 6.38842C12.707 6.38842 12.5 9.26538 12.5 13.2149C12.5 17.1645 12.7244 20.0413 16.4517 20.0413C18.4993 20.0413 20.1702 19.1988 21.0968 17.7028L21.166 19.7084H24.6552V6.71715H21.166ZM17.3824 16.8563C15.3608 16.8563 13.9754 15.3726 13.9754 13.2108C13.9754 11.0491 15.3608 9.56538 17.3824 9.56538C19.4041 9.56538 20.7893 11.0491 20.7893 13.2108C20.7893 15.3726 19.3997 16.8563 17.3824 16.8563ZM9.69396 6.74158H6.15716V5.63183C6.15716 3.97146 6.84116 3.33449 8.6161 3.33449C9.16583 3.33449 9.6117 3.34677 9.86716 3.37146V0.523355C9.38223 0.395886 8.2005 0.268545 7.5165 0.268545C3.9017 0.268545 2.23503 1.88778 2.23503 5.38525V6.73741H0.001297V9.87741H2.23503V19.7041H6.16143V9.88146H9.08796L9.69396 6.74158Z" fill="white"/></g><defs><clipPath id="clip0_2086_46"><rect width="10" height="20" fill="white"/></clipPath></defs></svg>
